X:513
T:Saxonies Hornpipe.2voices RH.513
T:Lord Nelson’s Hp,aka. RH.513
T:Bridge of Lodi,aka. RH.513
R:.hornpipe
S:Rev.R.Harrison’s MS,c1815,Cumbria
C:In hand 3
O:England
A:Temple Sowerby,Cumbria
Z:vmp.Simon Wilson. Review PJH, 2008.
V:1 name=”primo”
V:2 name=”secundo”
M:C|
L:1/8
Q:1/2=90
K:D
[V:1] AF|D2d2 d2cd|ecAc d2de|fdfd gege|afdf ecAF|
[V:2] z2|d2d2 d2d2|A2A2 d2d2|d2d2 e2e2|d2d2 A2A2|
%
[V:1] D2d2 d2cd|ecAc d2de|fdec dBA^G|B2A2 A2:|
[V:2] d2d2 d2d2|a2A2 d2d2|d2d2 e2e2|A2A2 A2:|
%
[V:1]|:fg|agfe dcBA|B2G2 G2fa|bagf gfed|c2A2 A2fg|
[V:2]|:z2|d2d2 d2d2|g2g2 g2z2|e2e2 e2e2|a2a2 a2z2|
%
[V:1] a2af b2ba|gfge a2ag|fedc Bgec|d2d2 d2|]
[V:2] d2d2 e2e2|g2g2 f2f2|g2g2 a2A2|d2d2 d2|]

